X: 51
T:Pointe au Pic
M:2/4
L:1/16
R:reel
K:G
dBd|ABGA FGEF|DDD2 zdBd|ABGA FGEG|FFF2 zdBd|
ABGA FGEG|FFF2 zd^cd|ed^cd edBG|DDD2 zdBd|
ABGA FGEF|DDD2 zdBd|ABGA F2=F2|E6D2|
EDEF GFGA|BABde4|d2c2 -cAEF|G4z:|
D2|EDEF GFFA|Be2e efe2|Be2e efe2|Be2e e2(3GFE|
D2DE FDFA|d^cde dAFA|d2de dAFA|ddd2 d2GF|
EDEF GFFA|Be2e efe2|Be2e efe2|Be2e e2 f2|
g3a gdBc|d^cde dBGA|BdBG AcAF|G4 G:|
